svg/vector_circle_variant.svg

<svg xmlns="http://www.w3.org/2000/svg" viewBox="0 0 24 24"><path d="M22 9h-2.03c-1.27-3.59-4.66-6-8.47-6a9 9 0 0 0-9 9c0 5 4.03 9 9 9 3.81 0 7.2-2.4 8.5-6h2m-2-4v2h-2v-2m-.18 4c-1.16 2.44-3.62 4-6.32 4-3.86 0-7-3.13-7-7 0-3.86 3.14-7 7-7 2.7 0 5.16 1.57 6.31 4H16v6"/></svg>

<?xml version="1.0" encoding="UTF-8"?><!DOCTYPE svg PUBLIC "-//W3C//DTD SVG 1.1//EN" "http://www.w3.org/Graphics/SVG/1.1/DTD/svg11.dtd"><svg xmlns="http://www.w3.org/2000/svg" xmlns:xlink="http://www.w3.org/1999/xlink" version="1.1" id="mdi-vector-circle-variant" width="24" height="24" viewBox="0 0 24 24"><path d="M22,9H19.97C18.7,5.41 15.31,3 11.5,3A9,9 0 0,0 2.5,12C2.5,17 6.53,21 11.5,21C15.31,21 18.7,18.6 20,15H22M20,11V13H18V11M17.82,15C16.66,17.44 14.2,19 11.5,19C7.64,19 4.5,15.87 4.5,12C4.5,8.14 7.64,5 11.5,5C14.2,5 16.66,6.57 17.81,9H16V15" /></svg>
